X:1
T:Grande Valse Brilliante
T:Grande Valse Brilliante
T:An Analysis of the Waltz
T:Frederick Chopin
T:Op. 18
C:Frederick Chopin
Z:Op. 18
%%score { ( 1 3 ) | ( 2 4 ) }
L:1/8
Q:1/4=220
M:3/4
K:Eb
V:1 treble nm="Piano" snm="Pno."
V:3 treble 
V:2 bass 
V:4 bass 
V:1
"^This waltz is in what I would consider to be a Quasi-Sonata Form. It isn't your typical Sonata Form, but it is quite similar\nto Sonata Form. The first A section you could consider to be the Exposition, the B section and Digression, you could \nconsider both to be part of the Development section, and the second A section, you could consider to be the Recapitulation.\n\nOr you could just say that the waltz is in an atypical Ternary Form and leave it at that. Either way you look at it, it isn't in a\ntypical form for the genre. I personally would describe this as a Quasi-Sonata Form though, because of the significance of\neach section and each theme in each section, including the Coda.\n"!f!"_Motivic buildup to first theme""^A Section" !^!B4 .B.B | %1
 !^!B4 .B.B | !^!B2 .B.B !^!B2 | .B.B !^!B2 .B.B |: %4
!f!"^Subphrase a - measures 5-8 - Sentential Presentation""^Phrase A - measures 5-12 - Sentence form""^Parallel Period - measures 5-21""^First Theme" !^!B2!<(! (de [df]2 | %5
 .B2) (ef [eg]2 | .B2) (fg [fa]2)!<)! |!ff!!>(! !^![_dgb]4 [dgb][dgb]!>)! |!p! (b2 c'b .a2) | %9
"^Subphrase b - measures 8-12 - Continuation" (a2 ba .g2) | (g2 ag .f2) |"_IAC" (f2 gf .e2) | %12
!f!"^Subphrase a - measures 13-16 - Sentential Presentation""^Phrase A' - measures 13-21 - Sentence form" .B2!<(! (de [df]2 | %13
 .B2) (ef [eg]2 | .B2) (fg [fa]2!<)! |!ff!!>(! !^![_dgb]3) ([gb] d[gb])!>)! | %16
!mf!!>(! (_db c'b [ca]2) |"^Subphrase b - measures 16-21 - Continuation" (_ca ba .[Bg]2) | %18
 (Bg ag [Af]2)!>)! |1!p!"_PAC" [Ge]2"_Motive"!<(! .B.B .B.B!<)! :|2 %20
!p!"^Subphrase a - measures 21-25 - Sentential Presentation""^Phrase A - Measures 21-29 - Sentence Form""^Parallel Period - Measures 21-37""^Second Theme" [Ge]2 .e.e .e.e || %21
 .e.e .e.e .e.e | fe cA E=E | .F.F .F.F .F.F | %24
"^Subphrase b - measures 25-29 - Continuation" EA ce a=e | .f.f .f.f .f.f | (3fgf ea .c'2 | %27
 f'2 e'_d' .g2 |"_IAC" b2 ae .c2 | %29
"^Subphrase a - measures 30-33 - Sentential Presentation""^Phrase A' - Measures 30-37 - Sentence Form" .e.e .e.e .e.e | %30
 fe cA E=E | .F.F .F.F .F.F |"^Subphrase b - measures 33-37 - Continuation" EA ce a=e | %33
 .f.f .f.f .f.f | (3fgf ea .c'2 | f'2 e'_d' .g2 |"_PAC"!<(! a4 !trill(!Tc2!<)! | %37
!f!"^Subphrase a - measures 38-41 - Sentential Presentation""^Phrase A - measures 38-45 - Sentence form""^Parallel Period - measures 38-52""^First Theme" !^!B2!<(! (de [df]2 | %38
 .B2) (ef [eg]2 | .B2) (fg [fa]2)!<)! |!ff!!>(! !^![_dgb]4 [dgb][dgb]!>)! |!p! (b2 c'b .a2) | %42
"^Subphrase b - measures 41-45 - Continuation" (a2 ba .g2) | (g2 ag .f2) |"_IAC" (f2 gf .e2) | %45
"^Subphrase a - measures 46-49 - Sentential Presentation" Bd e=e [df]2 | Bd ef [eg]2 | %47
 B=e fg [fa]2 |"^Subphrase b - measures 49-52 - Continuation" [_dgb]3 [gb] d[gb] | _db c'b .[ca]2 | %50
 _ca ba .[Bg]2 | Bg ag [Af]2 | %52
!p!"^Subphrase a - measures 53-57 - Sentential Presentation""^Phrase A - Measures 53-61 - Sentence Form""^Parallel Period - Measures 53-69""^Second Theme" .[Ge]2 .e.e .e.e | %53
 .e.e .e.e .e.e | fe cA E=E | .F.F .F.F .F.F | %56
"^Subphrase b - measures 57-61 - Continuation" EA ce a=e | .f.f .f.f .f.f | (3fgf ea .c'2 | %59
 f'2 e'_d' .g2 |"_IAC" b2 ae .c2 | %61
"^Subphrase a - measures 62-65 - Sentential Presentation""^Phrase A' - Measures 62-69 - Sentence Form" .e.e .e.e .e.e | %62
 fe cA E=E | .F.F .F.F .F.F |"^Subphrase b - measures 65-69 - Continuation" EA ce a=e | %65
 .f.f .f.f .f.f | (3fgf ea .c'2 | f'2 e'_d' .g2 |"_PAC"!<(! a4 A2!<)! |: %69
[K:Db]!mf!"^B Section""^Phrase A - measures 70-77 - Sentence Form""^Subphrase a - measures 70-73 - Sentential presentation""^Parallel Period - measures 70-85""^First Theme" [eg]4 [=B=d]2 | %70
 .[ce]2 .A.A A2 | [gb]4 [=e=g]2 | .[fa]2 .A.A A2 | %73
"^Subphrase b - measures 74-77 - Continuation" [eg]4 [=B=d]2 | .[ce]2 .A.A A2 | [Bg]2 [Af]2 [Ge]2 | %76
"_IAC" [Fd]2 .A.A A2 | %77
"^Subphrase a - measures 78-81 - Sentential presentation""^Phrase A' - measures 78-85 - Sentence Form" [eg]4 [=B=d]2 | %78
 [ce]2 .A.A A2 | [gb]4 [=e=g]2 | [fa]2 .A.A A2 | %81
"^Subphrase b - measures 82-85 - Continuation" .a2 Ba [eg]2- | [eg]3 g [df]2- | [df]3 f e2 |1 %84
"_PAC" [Fd]2 .A.A A2 :|2 %85
 [Fd]2 z2!ff!"^Subphrase a - measures 86-90 - Antecedent Phrase""^Phrase A - measures 86-94 - Contrasting Period""^Parallel Period - measures 86-102""^Second Theme" .[Ff]2 || %86
{/f} .[=Ge]2 .G2{/f} .[Ge]2 | .=G2{/f} .[Ge]2 .G2 |!p! Ac ea .c'2 | (3aba f=d"_HC?" .e2 | %90
!f!"^Subphrase b - measures 91-94 - Consequent Phrase"{/f} .[=Ge]2 .G2{/f} .[Ge]2 | %91
 .=G2{/f} .[Ge]2 .G2 |!p! (3EFE!<(! =DE cB |{AB} A=G AB c"_IAC"d!<)! | %94
!ff!"^Subphrase a - measures 95-98 - Antecedent Phrase""^Phrase A' - measures 95-102 - Contrasting Period"{/f} .[=Ge]2 .G2{/f} .[Ge]2 | %95
 .=G2{/f} .[Ge]2 .G2 |!p! Ac ea .c'2 | (3aba f=d"_HC?" .e2 |!f!{/f} .[=Ge]2 .G2{/f} .[Ge]2 | %99
 .=G2{/f} .[Ge]2 .G2 |!p!"^Subphrase b - measures 99-102 - Consequent Phrase"{AB} A=G!<(! AB cd | %101
 ef g=g"_IAC" b>a!<)! | %102
!mf!"^Phrase A - measures 103-110 - Sentence Form""^Subphrase a - measures 103-106 - Sentential presentation""^Parallel Period - measures 103-118""^First Theme" [eg]4 [=B=d]2 | %103
 .[ce]2 .A.A A2 | [gb]4 [=e=g]2 | .[fa]2 .A.A A2 | %106
"^Subphrase b - measures 107-110 - Continuation" [eg]4 [=B=d]2 | .[ce]2 .A.A A2 | %108
 [Bg]2 [Af]2 [Ge]2 |"_IAC" [Fd]2 .A.A A2 | %110
"^Subphrase a - measures 111-114 - Sentential presentation""^Phrase A' - measures 111-118 - Sentence Form" [eg]4 [=B=d]2 | %111
 [ce]2 .A.A A2 | [gb]4 [=e=g]2 | [fa]2 .A.A A2 | %114
"^Subphrase b - measures 115-118 - Continuation" .a2 Ba [eg]2- | [eg]3 g [df]2- | [df]3 f e2 | %117
"_PAC" [Fd]2 .D.D .D2 |: %118
!f!"^Digression""^Phrase A - measures 119-126 - Sentence Form""^Parallel Period - measures 119-134""^Subphrase a - measures 119-122 - Sentential Presentation" .[FA]2 z2 .[FA]2 | %119
!<(!{AB} .[FA]2 z [EG] [FA]2 | .[GB]2 z2 .[Bd]2!<)! |!ff!"_HC?" [Bg]6 | %122
"^Subphrase b - measures 123-126 - Continuation" .[Af]2 z!p! .e [Ge]2 | .[Af]2 z .e [Ge]2 | %124
 .[Af]2 z e [Ge]2 | .[=Ec]2 z d"_IAC" [Fd]2 |!f! .[fa]2 z .[fa] [fa]2 | %127
"^Subphrase a - measures 127-130 - Sentential Presentation""^Phrase A' - measures 127-134 - Sentence Form"!<(!{ab} .[fa]2 z [eg] [fa]2 | %128
 .[gb]2 z2 .[bd']2!<)! |!ff!"_HC?" [bg']6 | %130
 .[af']2 z!p! .e'"^Subphrase b - measures 131-134 - Continuation" [ge']2 | .[af']2 z .e' [ge']2 | %132
 .[af']2 z .e' [ge']2 |1 [fd']2 z2 D2 :|2 [fd']2 z2 f2 |: %135
!p!"^Right Hand Cadenza - Parallel Period - measures 136-151""^Phrase A - measures 136-143 - Antecedent Phrase"{/f} g2{/g} =e2{/e} f2 | %136
{/f} g2{/g} =e2{/e} f2 |!>(!{/f} d'2{/d'} c'2{/c'} =b2 |{/_c'} b2{/b} =a2{/b} _a2 | %139
{/a} =g2{/a} _g2{/g} f2 |{/f} =e2{/_f} _e2{/e} c2!>)! |!pp!{/c} d2{/d} =A2{/A} B2 | %142
!<(!{/B} d2{/d} e2{/e} =e2 | %143
"^Phrase A' - measures 144-151 - Consequent Phrase"{/=e} g2{/g} e2{/e} f2 | %144
{/f} g2{/g} =e2{/e} f2!<)! |!mp!{/f} f'2{/f'} d'2{/d'} b2 |{/b} g2{/g} e2{/e} c2 | %147
{/g} f2"_cresc."{/f} =e2{/_f} _e2 |{/=e} =d2{/_e} _d2{/d} c2 |{/c} _c2{/c} B2{/B} =A2 | %150
{/B} A2{/A} =G2{/__A} _G2 |!f! [FA]2 z!p! .[FA] [FA]2 | %152
"^Subphrase a - measures 152-155 - Sentential Presentation""^Phrase A - measures 152-159 - Sentence Form""^Parallel Period - measures 152-167"!<(!{AB} .[FA]2 z [EG] [FA]2 | %153
 .[GB]2 z2 .[Bd]2!<)! |!mf!"_HC?" [Bg]6 | .[Af]2 z .e [Ge]2 | %156
 .[Af]2 z .e"^Subphrase b - measures 156-159 - Continuation" [Ge]2 | .[Af]2 z .e [Ge]2 | %158
 .[=Ec]2 z d"_IAC" [Fd]2 |!f! .[fa]2 z .[fa] [fa]2 |!<(!{ab} .[fa]2 z [eg] [fa]2 | %161
"^Subphrase a - measures 160-163 - Sentential Presentation""^Phrase A' - measures 160-167 - Sentence Form" .[gb]2 z2 .[bd']2!<)! | %162
!ff!"_HC?" [bg']6 | .[af']2 z .e'"^Subphrase b - measures 164-167 - Continuation" [ge']2 | %164
 .[af']2 z e' [ge']2 | .[af']2 z .e' [ge']2 |1 [fd']2 z2!p! f2 :|2 [fd']2 z2!p! dd || de dc d=d | %169
 f4 e2 | AB A=G A=A | B2 .GB _c=c |{de} dc db ag | f4 e2 | (3ABA =GA _cB | .GC DF GB | de dc d=d | %177
{/=d} f4 e2 | AB{AB} A=G A=A | B2 .GB _c=c |{de} dc (3d._c'b (3bag | f4 e2 | (3ABA =GA _cB | %183
 .G2 z2"^Motive appears again and brings back A section" .B.B | .B2 z2 .B.B | .B2 z2 .B.B | %186
 .B2!ff! .[Bb].[Bb] .[Bb]2 | .[Bb].[Bb] .[Bb]2 .[Bb].[Bb] | .[Bb]2 z2!p! .[B,FB].[B,B] | %189
 .[B,=EB]2 z2 .[B,_EB].[B,B] | .[B,=DB]2!<(! .[B,B].[B,B] .[B,B]2 | %191
"^A Section" .[B,B].[B,B] .[B,B]2 .[B,B].[B,B]!<)! || %192
[K:Eb]!f!"^Subphrase a - measures 193-196 - Sentential Presentation""^Phrase A - measures 193-200 - Sentence form""^Parallel Period - measures 193-208""^First Theme" !^![Bb]2!<(! (de [df]2 | %193
 .B2) (ef [eg]2 | .B2) (fg [fa]2)!<)! |!ff!!>(! !^![_dgb]4 [dgb][dgb]!>)! |!p! (b2 c'b .a2) | %197
"^Subphrase b - measures 196-200 - Continuation" (a2 ba .g2) | (g2 ag .f2) |"_IAC" (f2 gf .e2) | %200
!f!"^Subphrase a - measures 201-204 - Sentential Presentation""^Phrase A' - measures 201-208 - Sentence form" .[Bb]2!<(! (de [df]2 | %201
 .[Bb]2) (ef [eg]2 | .[Bb]2) (fg [fa]2!<)! |!ff!!>(! !^![_dgb]3) ([gb] d[gb])!>)! | %204
!mf!!>(! (_db c'b [ca]2) |"^Subphrase b - measures 204-208 - Continuation" (_ca ba .[Bg]2) | %206
 (Bg ag [Af]2)!>)! |!p!"_PAC" [Ge]2"_Motive" .e.e .e.e | %208
"^Subphrase a - measures 208-212 - Sentential Presentation""^Phrase A - Measures 208-216 - Sentence Form""^Parallel Period - Measures 208-224""^Second Theme" .e.e .e.e .e.e | %209
 fe cA E=E | .F.F .F.F .F.F |"^Subphrase b - measures 212-216 - Continuation" EA ce a=e | %212
 .f.f .f.f .f.f | (3fgf ea .c'2 | f'2 e'_d' .g2 |"_IAC" b2 ae .c2 | %216
"^Subphrase a - measures 217-220 - Sentential Presentation""^Phrase A' - Measures 217-224 - Sentence Form" .e.e .e.e .e.e | %217
 fe cA E=E | .F.F .F.F .F.F |"^Subphrase b - measures 220-224 - Continuation" EA ce a=e | %220
 .f.f .f.f .f.f | (3fgf ea .c'2 | f'2 e'_d' .g2 |"_PAC"!<(! a2 z2 !trill(!Tc2!<)! | %224
!f!"^Subphrase a - measures 225-228 - Sentential Presentation""^Phrase A - measures 225-232 - Sentence form""^Parallel Period - measures 225-241""^First Theme" !^!B2!<(! (de [df]2 | %225
 .B2) (ef [eg]2 | .B2) (fg [fa]2)!<)! |!ff!!>(! !^![_dgb]4 [dgb][dgb]!>)! |!p! (b2 c'b .a2) | %229
"^Subphrase b - measures 228-232 - Continuation" (a2 ba .g2) | (g2 ag .f2) |"_IAC" (f2 gf .e2) | %232
"^Subphrase a - measures 233-236 - Sentential Presentation"!f! .[Bb]2 ef [df]2 | .[Bb]2 ef [eg]2 | %234
 .[Bb]2 fg [fa]2 |"^Subphrase b - measures 238-241 - Continuation"!ff! [_dgb]2 z2 z2 | z6 | %237
 z2 z2!p! [_dgb][dgb] | b2 c'b .a2 | a2 ba .g2 | g2 ag .f2 |"^Coda" z6 |!pp! z6 | z6 | z6 | z6 | %246
"^Second Theme Material" .E.E .E.E E2 | G,B, EG c2 | %248
"^Cadenza Material""_cresc."{/c} .=B2{/_c} ._B2{/B} .=A2 |{/__B} .A2{/A} .G2{/G} .F2 | %250
"^Second Theme Material" .E.E .E.E E2 | CE Ac f2 |"^Cadenza Material"{/g} .f2{/f} .=e2{/_f} ._e2 | %253
{/e} .d2{/__e} ._d2{/d} .c2 |"^Second Theme Material" ._c.c .c.c .c.c | A_c df _c'2 | %256
"^Cadenza Material"{/_c'} .b2{/b} .=a2{/__b} ._a2 |{/b} .g2{/__a} ._g2{/g} .f2 | %258
!f!{/f} .g'2{/g'} .f'2{/f'} .=e'2 |{/_f'} .e'2{/e'} .d'2{/__e'} ._d'2 | %260
!<(!{/_d'} .c'2{/c'} .=b2{/_c'} ._b2 |{/b} .=a2{/__b} ._a2{/a} .f2!<)! | %262
!ff!"^First Theme Material" .[ee']2 ga [gb]2 | .[ee']2 _ga [g__b]2 | .[ee']2 fg [fa]2 | %265
 [Bgb]4 [Bgb][Bgb] | [Bb]6 | [Bb]6 | g4 f2 | f4 e2 | [Ee]6 | [Ee]6 | [Ee]6 | [B,GB]4 [B,GB][B,GB] | %274
 [B,B]6 | [B,B]6 |"^Second Theme Material"!p! ._c.c .c.c .c.c | _cB GE .B,2 | %278
!pp!"^First Theme Material" [B,B]6 | [B,B]6 |"^Second Theme Material" .c.c .c.c .c.c | cB GE .B,2 | %282
"_cresc." ._c.c .c.c .c.c | _cB AF .D2 | gf d_c .A2 | _c'a fd ._c2 | %286
"^Cadenza developed from Second Theme"!ff!!8va(! _c''g' c''a' f'd'!8va)! | _c'g c'a fd | %288
 _cG cA FD | _CG, CA, F,D, |!f! E, z!p! G,A, B,C | DE FG A=A | cB GA Bc | de fg a=a | %294
"_cresc." c'b ga bc' |!8va(! d'e' f'g' a'=a' | c''b' g'a' =a'b' | c''b' g'a' =a'b' | %298
 .e'' z g'a' =a'b' | .e''2 g'a' =a'b' | .e''2 g'a' =a'b' | .e''2 g'a' =a'b' | e''2 g'a' =a'b' | %303
 .e''2 g'a' =a'b' | e''2 g'a' =a'b' | .e''2 g'a' =a'b' |!f! .e''2!8va)! z2 z2 | z6 | %308
 .[gbe'g']2 z2 z2 |!ff! .[GBeg]2 .[GBeg]2 .[GBeg]2 |[K:bass] E,6 |] %311
V:2
"""_Eb:" z6 | z6 | z6 | z6 |:""!ped! .B,,2 [B,FA]2 [B,FA]2!ped-up! | %5
""!ped! .E,2 [B,EG]2 [B,EG]2!ped-up! |""!ped! .D,2 [B,FA]2 [B,FA]2!ped-up! | %7
""!ped! .E,2 .[B,_DG]2"" =E,2!ped-up! |"" .F,2 .[A,F]2 .A,,2 |""!ped! .B,,2 [G,E]2 [G,E]2!ped-up! | %10
""!ped! .B,,2 [F,D]2 [B,D]2!ped-up! |"" z2 [B,E]2 [B,E]2 |""!ped! .B,,2 [B,FA]2 [B,FA]2!ped-up! | %13
""!ped! .E,2 [B,EG]2 [B,EG]2!ped-up! |""!ped! .D,2 [B,FA]2 [B,FA]2!ped-up! | %15
""!ped! .E,2 .[B,_DG]2"" =E,2!ped-up! |"" F,2 [A,F]2 A,,2 |""!ped! .B,,2 [G,E]2 [G,E]2!ped-up! | %18
""!ped! B,,2 [F,D]2 [B,-D]2!ped-up! |1"" [E,B,E]2 z2 z2 :|2"_Ab:" z2 [G,E]2"" [G,_D]2 || %21
"" A,,2 [E,A,C]2 [E,A,C]2 | A,,2 [E,A,C]2 [E,A,C]2 |"" A,,2 [D,A,=B,]2 [D,A,B,]2 | %24
"" A,,2 [E,A,C]2 [E,A,C]2 |"" D,2 [A,=B,F]2 [A,B,F]2 |"" E,2 [CEA]2 [CEA]2 |"" E,2 [_DEG]2 [DEG]2 | %28
"" A,2 [CEA]2 [CEA]2 | A,,2 [E,A,C]2 [E,A,C]2 | A,,2 [E,A,C]2 [E,A,C]2 | %31
"" A,,2 [D,A,=B,]2 [D,A,B,]2 |"" A,,2 [E,A,C]2 [E,A,C]2 |"" D,2 [A,=B,F]2 [A,B,F]2 | %34
"" E,2 [CEA]2 [CEA]2 |"" E,2 [_DEG]2 [DEG]2 |"" z2 [CA]2"""_Eb:" [FA]2 | %37
""!ped! .[B,,B,]2 [B,FA]2 [B,FA]2!ped-up! |""!ped! .E,2 [B,EG]2 [B,EG]2!ped-up! | %39
""!ped! .D,2 [B,FA]2 [B,FA]2!ped-up! |""!ped! .E,2 .[B,_DG]2"" =E,2!ped-up! | %41
"" .F,2 .[A,F]2 .A,,2 |""!ped! .B,,2 [G,E]2 [G,E]2!ped-up! |""!ped! .B,,2 [F,D]2 [B,D]2!ped-up! | %44
"" z2 [B,E]2 [B,E]2 |"" .B,,2 [B,FA]2 [B,FA]2 |"" .E,2 [B,EG]2 [B,EG]2 |"" .D,2 [B,FA]2 [B,FA]2 | %48
"" .E,2 .[B,_DG]2"" =E,2 |"" .F,2 .[A,F]2 .A,,2 |"" .B,,2 [G,E]2 [G,E]2 |"" .B,,2 [F,D]2 [B,-D]2 | %52
"" [E,B,E]2"_Ab:" z2"" [E,G,_D]2 |"" A,,2 [E,A,C]2 [E,A,C]2 | A,,2 [E,A,C]2 [E,A,C]2 | %55
"" A,,2 [D,A,=B,]2 [D,A,B,]2 |"" A,,2 [E,A,C]2 [E,A,C]2 |"" D,2 [A,=B,F]2 [A,B,F]2 | %58
"" E,2 [CEA]2 [CEA]2 |"" E,2 [_DEG]2 [DEG]2 |"" z2 [CEA]2 [CEA]2 | A,,2 [E,A,C]2 [E,A,C]2 | %62
 A,,2 [E,A,C]2 [E,A,C]2 |"" A,,2 [D,A,=B,]2 [D,A,B,]2 |"" A,,2 [E,A,C]2 [E,A,C]2 | %65
"" D,2 [A,=B,F]2 [A,B,F]2 |"" z2 [CEA]2 [CEA]2 |"" z2 [_DEG]2 [DEG]2 |"" A,,2 [E,C]2 z2 |: %69
[K:Db]"""_Db:" .A,,2 [E,C]2 [A,G]2 | .A,,2 [E,C]2 [A,G]2 |"" .D,2 [F,D]2 [A,F]2 | %72
 .D,2 [F,D]2 [A,F]2 |"" .A,,2 [E,C]2 [A,G]2 | .A,,2 [E,C]2 [A,G]2 |"" z2 A,2 C2 | %76
 .[D,D]2 [F,D]2 [A,F]2 |"" .A,,2 [E,C]2 [A,G]2 | .A,,2 [E,C]2 [A,G]2 |"" .D,,2 [F,D]2 [A,F]2 | %80
 .D,2 [F,D]2 [A,F]2 |"" .G,,2 [G,=D]2 [B,E]2 |"" .A,,2 [F,C]2 [A,D]2 | .A,,2 [E,A,C]2 [E,A,C]2 |1 %84
"" [D,A,D]2 z2 z2 :|2"" [D,A,D]2"_Ab:" z2 .[D,A,D]2 ||"" .[E,B,D]2 z2 .[E,B,D]2 | %87
 .[E,B,D]2 z2 .[E,B,D]2 |"" A,,2 [E,A,C]2 [E,A,C]2 | A,,2"" [A,=B,]2"" .[E,A,C]2 | %90
"" .[E,B,D]2 z2 .[E,B,D]2 | .[E,B,D]2 z2 .[E,B,D]2 | E,,2 [=G,D]2 [E,D]2 |"" A,,2 [A,C]2 [E,C]2 | %94
"" .[E,B,D]2 z2 .[E,B,D]2 | .[E,B,D]2 z2 .[E,B,D]2 |"" A,,2 [E,A,C]2 [E,A,C]2 | %97
 A,,2"" [A,=B,]2"" .[E,A,C]2 |"" .[E,B,D]2 z2 .[E,B,D]2 | .[E,B,D]2 z2 .[E,B,D]2 |"" [A,C]2 z2 z2 | %101
 z6 |"""_Db:" .A,,2 [E,C]2 [A,G]2 | .A,,2 [E,C]2 [A,G]2 |"" .D,,2 [F,D]2 [A,F]2 | %105
 .D,2 [F,D]2 [A,F]2 |"" .A,,2 [E,C]2 [A,G]2 | .A,,2 [E,C]2 [A,G]2 |"" z2 A,2 C2 | %109
 .[D,D]2 [F,D]2 [A,F]2 |"" .A,,2 [E,C]2 [A,G]2 | .A,,2 [E,C]2 [A,G]2 |"" .D,,2 [F,D]2 [A,F]2 | %113
 .D,2 [F,D]2 [A,F]2 |"" .G,,2 [G,=D]2 [B,E]2 |"" .A,,2 [F,C]2 [A,D]2 |"" .A,,2 [E,A,C]2 [E,A,C]2 | %117
"" .[D,A,D]2 z2 z2 |:"" .D,,2 [D,A,_C]2 [D,A,C]2 | .D,,2 [D,A,_C]2 [D,A,C]2 | %120
"" .G,,2 [D,G,B,]2 [D,G,B,]2 | .G,,2 [=D,B,]2 [E,B,]2 |"" .A,,2 [E,A,C]2 [E,A,C]2 | %123
 .A,,2 [E,A,C]2 [E,A,C]2 | .A,,2 [E,A,C]2 [E,A,C]2 | z2"" [A,D]2 [A,D]2 |"" .D,2 [DA_c]2 [DAc]2 | %127
 .D,2 [DA_c]2 [DAc]2 |"" .G,2 [DGB]2 [DGB]2 | .G,2 [=DB]2 [EB]2 |"" .A,2 [EAc]2 [EAc]2 | %131
 .A,2 [EAc]2 [EAc]2 | A,2 [EAc]2 [EAc]2 |1"""^PAC" [DAd]2 z2 z2 :|2"" [F,,C,F,]2 z2 z2 |: %135
"""_Bbm:" .B,,2 [F,D]2 [F,D]2 |"" .=A,,2 [F,CE]2 [F,CE]2 |"" .B,,2 [F,B,D]2 [F,B,D]2 | %138
"" .E,2 [B,CG]2 [B,CG]2 |"" .F,2 [B,DF]2 [B,DF]2 |"" .F,2 [=A,EF]2 [A,EF]2 | %141
"" .B,,2 [F,D]2 [F,D]2 | .B,,2 [F,D]2 [F,D]2 | .B,,2 [F,D]2 [F,D]2 |"" =A,,2 [F,CE]2 [F,CE]2 | %145
"" .B,,2 [F,B,D]2 [F,B,D]2 |"" .E,2 [B,CG]2 [B,CG]2 |"" .F,2 [B,DF]2 [B,DF]2 | %148
"" .F,2 [=A,EF]2 [A,EF]2 |"" [B,DF]2 z2 z2 | z6 |"""_Db:" .D,,2 [D,A,_C]2 [D,A,C]2 | %152
 .D,,2 [D,A,_C]2 [D,A,C]2 |"" .G,,2 [D,G,B,]2 [D,G,B,]2 | .G,,2 [=D,B,]2 [E,B,]2 | %155
"" .A,,2 [E,A,C]2 [E,A,C]2 | .A,,2 [E,A,C]2 [E,A,C]2 | .A,,2 [E,A,C]2 [E,A,C]2 | %158
"" z2 [A,D]2 [A,D]2 |"" .D,2 [DA_c]2 [DAc]2 | .D,2 [DA_c]2 [DAc]2 |"" .G,2 [DGB]2 [DGB]2 | %162
 .G,2 [DB]2 [EB]2 |"" .A,2 [EAc]2 [EAc]2 | .A,2 [EAc]2 [EAc]2 | .A,2 [EAc]2 [EAc]2 |1 %166
"""^PAC" [DAd]2 z2 z2 :|2"" [F,,C,F,]2 z2 z2 ||"""_Gb:" z2 [G,D]2 [G,D]2 | %169
"" _C,2 [G,A,E]2 [G,A,E]2 |"" z2 [F,_C]2 [F,C]2 |"" G,,2 [D,B,]2 [D,B,]2 | z2 [G,D]2 [G,D]2 | %173
"" _C,2 [G,A,E]2 [G,A,E]2 |"" z2 [F,_C]2 [F,C]2 |"" G,,2 [D,B,]2 [D,B,]2 | z2 [G,D]2 [G,D]2 | %177
"" _C,2 [G,A,E]2 [G,A,E]2 |"" z2 [F,_C]2 [F,C]2 |"" G,,2 [D,B,]2 [D,B,]2 | z2 [G,D]2 [G,D]2 | %181
"" _C,2 [=G,E]2 [A,E]2 |"" z2 [F,_C]2 [F,C]2 |"" G,,2 [D,B,]2"""_Eb:" z2 | [B,,,B,,]2 z2 [A,B,F]2 | %185
 [=G,B,=E]2 z2 [_G,B,_E]2 | [F,B,=D]2 .[B,,,B,,].[B,,,B,,] .[B,,,B,,]2 | %187
 .[B,,,B,,].[B,,,B,,] .[B,,,B,,]2 .[B,,,B,,].[B,,,B,,] | .[B,,,B,,]2 z2 [B,,A,]2 | %189
 [B,,=G,]2 z2 [B,,_G,]2 | [B,,F,]2 z2 z2 | z6 ||[K:Eb]""!ped! .[B,,,B,,]2 [B,FA]2 [B,FA]2!ped-up! | %193
""!ped! .[E,,E,]2 [B,EG]2 [B,EG]2!ped-up! |""!ped! .[B,,,B,,]2 [B,FA]2 [B,FA]2!ped-up! | %195
""!ped! .E,2 .[B,_DG]2"" =E,2!ped-up! |"" .F,2 .[A,F]2 .A,,2 |""!ped! .B,,2 [G,E]2 [G,E]2!ped-up! | %198
""!ped! .B,,2 [F,D]2 [B,D]2!ped-up! |"" z2 [B,E]2 [B,E]2 | %200
""!ped! .[B,,B,]2 [B,FA]2 [B,FA]2!ped-up! |""!ped! .[E,,E,]2 [B,EG]2 [B,EG]2!ped-up! | %202
""!ped! .[B,,B,]2 [B,FA]2 [B,FA]2!ped-up! |""!ped! .E,2 .[B,_DG]2"" =E,2!ped-up! | %204
"" F,2 [A,F]2 A,,2 |""!ped! .B,,2 [G,E]2 [G,E]2!ped-up! |""!ped! B,,2 [F,D]2 [B,-D]2!ped-up! | %207
"" [E,B,E]2"_Ab:" z2 z2 |"" A,,2 [E,A,C]2 [E,A,C]2 | A,,2 [E,A,C]2 [E,A,C]2 | %210
"" A,,2 [D,A,=B,]2 [D,A,B,]2 |"" A,,2 [E,A,C]2 [E,A,C]2 |"" D,2 [A,=B,F]2 [A,B,F]2 | %213
"" E,2 [CEA]2 [CEA]2 |"" E,2 [_DEG]2 [DEG]2 |"" A,2 [CEA]2 [CEA]2 | A,,2 [E,A,C]2 [E,A,C]2 | %217
 A,,2 [E,A,C]2 [E,A,C]2 |"" A,,2 [D,A,=B,]2 [D,A,B,]2 |"" A,,2 [E,A,C]2 [E,A,C]2 | %220
"" D,2 [A,=B,F]2 [A,B,F]2 |"" E,2 [CEA]2 [CEA]2 |"" E,2 [_DEG]2 [DEG]2 |"" z2 [CA]2 [FA]2 | %224
""!ped! .[B,,B,]2 [B,FA]2 [B,FA]2!ped-up! |""!ped! .E,2 [B,EG]2 [B,EG]2!ped-up! | %226
""!ped! .D,2 [B,FA]2 [B,FA]2!ped-up! |""!ped! .E,2 .[B,_DG]2"" =E,2!ped-up! | %228
"" .F,2 .[A,F]2 .A,,2 |""!ped! .B,,2 [G,E]2 [G,E]2!ped-up! |""!ped! .B,,2 [F,D]2 [B,D]2!ped-up! | %231
"" z2 [B,E]2 [B,E]2 |"" .[B,,B,]2 [B,FA]2 [B,FA]2 |"" .[E,,E,]2 [B,EG]2 [B,EG]2 | %234
"" .[B,,B,]2 [B,FA]2 [B,FA]2 |"" [E,B,_DG]2 z2 z2 | z6 | z2 z2"" =E,2 |"" .F,2 .[A,F]2 .A,,2 | %239
"" .B,,2 [G,E]2 [G,E]2 |"" .B,,2 [F,B,D]2 [F,B,D]2 | z6 |"" E,,2 [B,,G,]2 [B,,G,]2 | %243
 E,,2 [B,,G,]2 [B,,G,]2 | E,,2 [B,,G,]2 [B,,G,]2 | E,,2 [B,,G,]2 [B,,G,]2 | %246
 E,,2 [B,,G,]2 [B,,G,]2 | E,,2 [B,,G,]2 [B,,G,]2 |"" E,,2 [E,G,_D]2 [E,G,D]2 | %249
 [E,G,_D]2 [E,G,D]2 [E,G,D]2 |"" E,,2 [E,A,C]2 [E,A,C]2 | E,,2 [E,A,C]2 [E,A,C]2 | %252
 E,,2 [E,A,C]2 [E,A,C]2 | [E,A,C]2 [E,A,C]2 [E,A,C]2 | [E,,E,]2 [E,A,D]2 [E,A,D]2 | %255
 [E,,E,]2 [E,A,D]2 [E,A,D]2 |"" [E,,E,]2 [E,A,=B,D]2 [E,A,B,D]2 | %257
 [E,A,=B,D]2 [E,A,B,D]2 [E,A,B,D]2 | [E,A,=B,D]2 [E,A,B,D]2 [E,A,B,D]2 | %259
 [E,A,=B,D]2 [E,A,B,D]2 [E,A,B,D]2 |"" [E,A,B,D]2 [E,A,B,D]2 [E,A,B,D]2 | %261
 [E,A,B,D]2 [E,A,B,D]2 [E,A,B,D]2 |"" [E,,E,]2 [_DEGB]2 [DEGB]2 |"" [E,,E,]2 [CE_G__B]2 [CEGB]2 | %264
"" [E,,E,]2 [_CEFA]2 [CEFA]2 |"" [E,,E,]2 [G,B,EG]2 [G,B,EG]2 |"" [B,,,B,,]2 [A,B,DF]2 [A,B,DF]2 | %267
"" [E,,E,]2 [G,B,E]2 [G,B,E]2 |"" [B,,B,]2 [F,A,B,D]2 [F,A,B,D]2 |"" [E,,E,]2 [E,B,_D]2 [E,B,D]2 | %270
"" [A,,A,]2 [E,A,C]2 [E,A,C]2 |"" [A,,A,]2 [E,A,_C]2 [E,A,C]2 |"" E,,2 [B,,E,G,]2 [B,,E,G,]2 | %273
 E,,2 [B,,E,G,]2 [B,,E,G,]2 |"" E,,2 [B,,D,A,]2 [B,,D,A,]2 | E,,2 [B,,E,G,]2 [B,,E,G,]2 | %276
 E,,2 [B,,F,A,]2 [B,,F,A,]2 |"" E,,2 [B,,E,G,]2 [B,,E,G,]2 |"" E,,2 [B,,D,A,]2 [B,,D,A,]2 | %279
"" E,,2 [B,,E,G,]2 [B,,E,G,]2 |"" E,,2 [B,,F,A,]2 [B,,F,A,]2 |"" E,,2 [B,,E,G,]2 [B,,E,G,]2 | %282
"" E,,2 [B,,F,A,]2 [B,,F,A,]2 | E,,2 [B,,F,A,]2 [B,,F,A,]2 | E,,2 [B,,F,A,]2 [B,,F,A,]2 | %285
 E,,2 [B,,F,A,]2 [B,,F,A,]2 |"" [E,,E,]2 [E,A,=B,D]2 z2 | [E,A,=B,D]2 [E,A,B,D]2 z2 | %288
 [E,A,=B,D]2 [E,A,B,D]2 z2 | z6 |"" [E,,,E,,] z z2 z2 | z6 | z2"" [G,B,E]2 [G,B,EG]2 | %293
 [G,B,EG]2 [G,B,EG]2 [G,B,EG]2 | [G,B,EG]2 [G,B,EG]2 [G,B,EG]2 | [G,B,EG]2 [G,B,EG]2 [G,B,EG]2 | %296
 [G,B,EG]2 [G,B,EG]2 [G,B,EG]2 | [G,B,EG]2 [G,B,EG]2 [G,B,EG]2 | [G,B,EG]2 z2 z2 | [E,G,E]2 z2 z2 | %300
 [G,B,EG]2 z2 z2 |[K:treble] [B,GB]2 z2 z2 | [EGe]2 z2 z2 | [B,GB]2 z2 z2 | [Geg]2 z2 z2 | %305
 [Bgb]2 z2 z2 | [ge'g']2 z2 z2 | z6 | .[EBe]2 z2 z2 |[K:bass] .[E,B,E]2 .[E,B,E]2 .[E,B,E]2 | %310
 [E,,E,]6 |] %311
V:3
 x6 | x6 | x6 | x6 |: x6 | x6 | x6 | x6 | [_dg]4 c2 | _c4 B2 | B4 A2 | A4 G2 | x6 | x6 | x6 | %15
 x2 x2 _d2 | _d4 x2 | _c4 x2 | B4 x2 |1 x6 :|2 x6 || x6 | x6 | x6 | x6 | x6 | x6 | x6 | x6 | x6 | %30
 x6 | x6 | x6 | x6 | x6 | x6 | x6 | x6 | x6 | x6 | x6 | [_dg]4 c2 | _c4 B2 | B4 A2 | A4 G2 | x6 | %46
 x6 | x6 | x2 x2 _d2 | _d4 x2 | _c4 x2 | B4 x2 | x6 | x6 | x6 | x6 | x6 | x6 | x6 | x6 | x6 | x6 | %62
 x6 | x6 | x6 | x6 | x6 | x6 | x6 |:[K:Db] x6 | x6 | x6 | x6 | x6 | x6 | x6 | x6 | x6 | x6 | x6 | %80
 x6 | x2 B2 x2 | x2 A2 x2 | x2 G2 G2 |1 x6 :|2 x6 || x6 | x6 | x6 | x6 | x6 | x6 | x6 | x6 | x6 | %95
 x6 | x6 | x6 | x6 | x6 | x6 | x6 | x6 | x6 | x6 | x6 | x6 | x6 | x6 | x6 | x6 | x6 | x6 | x6 | %114
 x2 B2 x2 | x2 A2 x2 | x2 G2 G2 | x6 |: x6 | x6 | x6 | x6 | x6 | x6 | x6 | x6 | x6 | x6 | x6 | x6 | %130
 x6 | x6 | x6 |1 x6 :|2 x6 |: x6 | x6 | x6 | x6 | x6 | x6 | x6 | x6 | x6 | x6 | x6 | x6 | x6 | x6 | %149
 x6 | x6 | x6 | x6 | x6 | x6 | x6 | x6 | x6 | x6 | x6 | x6 | x6 | x6 | x6 | x6 | x6 |1 x6 :|2 x6 || %168
 x6 | x6 | x6 | x6 | x6 | x6 | x6 | x6 | x6 | x6 | x6 | x6 | x6 | x6 | x6 | x6 | x6 | x6 | x6 | %187
 x6 | x6 | x6 | x6 | x6 ||[K:Eb] x6 | x6 | x6 | x6 | [_dg]4 c2 | _c4 B2 | B4 A2 | A4 G2 | x6 | x6 | %202
 x6 | x2 x2 _d2 | _d4 x2 | _c4 x2 | B4 x2 | x6 | x6 | x6 | x6 | x6 | x6 | x6 | x6 | x6 | x6 | x6 | %218
 x6 | x6 | x6 | x6 | x6 | x6 | x6 | x6 | x6 | x6 | [_dg]4 c2 | _c4 B2 | B4 A2 | A4 G2 | x6 | x6 | %234
 x6 | x6 | x6 | x6 | [_dg]4 c2 | _c4 B2 | B4 A2 | x6 | x6 | x6 | x6 | x6 | x6 | x6 | x6 | x6 | x6 | %251
 x6 | x6 | x6 | x6 | x6 | x6 | x6 | x6 | x6 | x6 | x6 | x6 | x6 | x6 | x6 | g2 ag f2 | f2 gf e2 | %268
 B2 cB A2 | A2 BA G2 | E2"_dim." AB [Ac]2 | E2 AB [A_c]2 | E2 GA [GB]2 | x6 | G2 AG F2 | F2 GF E2 | %276
 D x x4 | x6 | G2 AG F2 | F2 GF E2 | D x x4 | x6 | _D x x4 | x6 | x6 | x6 |!8va(! x6!8va)! | x6 | %288
 x6 | x6 | x6 | x6 | x6 | x6 | x6 |!8va(! x6 | x6 | x6 | x6 | x6 | x6 | x6 | x6 | x6 | x6 | x6 | %306
 x2!8va)! x4 | x6 | x6 | x6 |[K:bass] x6 |] %311
V:4
 x6 | x6 | x6 | x6 |: x6 | x6 | x6 | x6 | x6 | x6 | x6 | E,6 | x6 | x6 | x6 | x6 | x6 | x6 | x6 |1 %19
 x6 :|2 E,4 E,2 || x6 | x6 | x6 | x6 | x6 | x6 | x6 | x6 | x6 | x6 | x6 | x6 | x6 | x6 | x6 | A,6 | %37
 x6 | x6 | x6 | x6 | x6 | x6 | x6 | E,6 | x6 | x6 | x6 | x6 | x6 | x6 | x6 | x6 | x6 | x6 | x6 | %56
 x6 | x6 | x6 | x6 | A,6 | x6 | x6 | x6 | x6 | x6 | E,6 | E,6 | x6 |:[K:Db] x6 | x6 | x6 | x6 | %73
 x6 | x6 | D,6 | x6 | x6 | x6 | x6 | x6 | x6 | x6 | x6 |1 x6 :|2 x6 || x6 | x6 | x6 | x2 =D,F, x2 | %90
 x6 | x6 | x6 | x6 | x6 | x6 | x6 | x2 =D,F, x2 | x6 | x6 | x6 | x6 | x6 | x6 | x6 | x6 | x6 | x6 | %108
 D,6 | x6 | x6 | x6 | x6 | x6 | x6 | x6 | x6 | x6 |: x6 | x6 | x6 | x6 | x6 | x6 | x6 | x6 | x6 | %127
 x6 | x6 | x6 | x6 | x6 | x6 |1 x6 :|2 x6 |: x6 | x6 | x6 | x6 | x6 | x6 | x6 | x6 | x6 | x6 | x6 | %146
 x6 | x6 | x6 | x6 | x6 | x6 | x6 | x6 | x6 | x6 | x6 | x6 | D,6 | x6 | x6 | x6 | x6 | x6 | x6 | %165
 x6 |1 x6 :|2 x6 || B,,6 | x6 | D,6 | x6 | B,,6 | x6 | D,6 | x6 | B,,6 | x6 | D,6 | x6 | B,,6 | %181
 x6 | D,6 | x6 | x6 | x6 | x6 | x6 | x6 | x6 | x6 | x6 ||[K:Eb] x6 | x6 | x6 | x6 | x6 | x6 | x6 | %199
 E,6 | x6 | x6 | x6 | x6 | x6 | x6 | x6 | x6 | x6 | x6 | x6 | x6 | x6 | x6 | x6 | x6 | x6 | x6 | %218
 x6 | x6 | x6 | x6 | x6 | A,6 | x6 | x6 | x6 | x6 | x6 | x6 | x6 | E,6 | x6 | x6 | x6 | x6 | x6 | %237
 x6 | x6 | x6 | x6 | x6 | x6 | x6 | x6 | x6 | x6 | x6 | x6 | x6 | x6 | x6 | x6 | x6 | x6 | x6 | %256
 x6 | x6 | x6 | x6 | x6 | x6 | x6 | x6 | x6 | x6 | x6 | x6 | x6 | x6 | x6 | x6 | x6 | x6 | x6 | %275
 x6 | x6 | x6 | x6 | x6 | x6 | x6 | x6 | x6 | x6 | x6 | x6 | x6 | x6 | x6 | x6 | x6 | x6 | x6 | %294
 x6 | x6 | x6 | x6 | x6 | x6 | x6 |[K:treble] x6 | x6 | x6 | x6 | x6 | x6 | x6 | x6 |[K:bass] x6 | %310
 x6 |] %311

